logos/kanjutech.svg

<?xml version="1.0" encoding="UTF-8"?>
<!DOCTYPE svg PUBLIC "-//W3C//DTD SVG 1.1//EN" "http://www.w3.org/Graphics/SVG/1.1/DTD/svg11.dtd">
<svg xmlns="http://www.w3.org/2000/svg" version="1.1" width="180px" height="173px" style="shape-rendering:geometricPrecision; text-rendering:geometricPrecision; image-rendering:optimizeQuality; fill-rule:evenodd; clip-rule:evenodd" xmlns:xlink="http://www.w3.org/1999/xlink">
<g><path style="opacity:0.985" fill="#03050b" d="M 70.5,-0.5 C 80.8333,-0.5 91.1667,-0.5 101.5,-0.5C 146.353,10.862 170.353,39.6953 173.5,86C 170.353,132.305 146.353,161.138 101.5,172.5C 91.1667,172.5 80.8333,172.5 70.5,172.5C 32.5,163.167 8.83333,139.5 -0.5,101.5C -0.5,91.1667 -0.5,80.8333 -0.5,70.5C 8.83333,32.5 32.5,8.83333 70.5,-0.5 Z M 78.5,25.5 C 124.794,25.957 143.961,48.957 136,94.5C 131.819,108.516 122.653,117.182 108.5,120.5C 102.054,119.887 98.3871,116.387 97.5,110C 99.4455,102.95 103.946,100.117 111,101.5C 120.019,98.5138 125.019,92.1805 126,82.5C 128.465,61.565 119.632,48.3983 99.5,43C 85.0889,40.0587 71.4223,42.0587 58.5,49C 46.486,60.2027 42.986,73.7027 48,89.5C 51.3728,98.0922 57.5394,101.926 66.5,101C 75.0482,104.977 76.3815,110.643 70.5,118C 63.8548,121.399 57.5215,120.732 51.5,116C 35.8961,101.77 30.3961,84.2702 35,63.5C 40.9702,41.0277 55.4702,28.361 78.5,25.5 Z M 59.5,127.5 C 66.5032,127.339 70.0032,130.672 70,137.5C 68.0892,142.418 64.5892,144.251 59.5,143C 55.1392,140.774 53.6392,137.274 55,132.5C 56.025,130.313 57.525,128.646 59.5,127.5 Z M 107.5,127.5 C 115.642,127.481 118.808,131.481 117,139.5C 111.186,145.205 106.186,144.538 102,137.5C 101.477,132.88 103.31,129.547 107.5,127.5 Z"/></g>
</svg>

<svg xmlns="http://www.w3.org/2000/svg" width="180" height="173" style="shape-rendering:geometricPrecision;text-rendering:geometricPrecision;image-rendering:optimizeQuality;fill-rule:evenodd;clip-rule:evenodd"><path style="opacity:.985" fill="#03050b" d="M70.5-.5h31c44.853 11.362 68.853 40.195 72 86.5-3.147 46.305-27.147 75.138-72 86.5h-31c-38-9.333-61.667-33-71-71v-31c9.333-38 33-61.667 71-71zm8 26c46.294.457 65.461 23.457 57.5 69-4.181 14.016-13.347 22.682-27.5 26-6.446-.613-10.113-4.113-11-10.5 1.945-7.05 6.446-9.883 13.5-8.5 9.019-2.986 14.019-9.32 15-19 2.465-20.935-6.368-34.102-26.5-39.5-14.411-2.941-28.078-.941-41 6C46.486 60.203 42.986 73.703 48 89.5c3.373 8.592 9.54 12.426 18.5 11.5 8.548 3.977 9.882 9.643 4 17-6.645 3.399-12.978 2.732-19-2C35.896 101.77 30.396 84.27 35 63.5c5.97-22.472 20.47-35.139 43.5-38zm-19 102c7.003-.161 10.503 3.172 10.5 10-1.91 4.918-5.41 6.751-10.5 5.5-4.36-2.226-5.86-5.726-4.5-10.5 1.025-2.187 2.525-3.854 4.5-5zm48 0c8.142-.019 11.308 3.981 9.5 12-5.814 5.705-10.814 5.038-15-2-.523-4.62 1.31-7.953 5.5-10z"/></svg>
